!!!OTL: ES BLIES EIN JAEGER WOL IN SEIN HORN
!!!ARE: Europa, Mitteleuropa, Deutschland, Coethen
!!!SCT: E0019C
!!!YEM: Copyright 1995, estate of Helmut Schaffrath.
**kern
*ICvox
*Ivox
*M4/4
*k[b-]
*F:
{4c
=1
4f
4f
4a
8a
8b-
=2
4cc
8cc
8b-
4a}
{4ff
=3
4.cc
8b-
4a
4b-
=4
2cc
4r}
{8a
8cc
=5
8cc
8b-
8b-
8a
4g
8g
8b-
=6
4a
4g
4f}
{4c
=7
4.f
8g
4a
4f
=8
4.g
8a
4b-}
{4cc
=9
8a
8a
8a
8a
4g
4g
=10
4f
4ff
4.cc}
{8b-
=11
8a
8a
8a
8a
4g
4g
=12
2f
4r}
==
!!!AGN: Sage, Maerchen -, Zauber - Lied, Ballade ?
!!!ONB: ESAC (Essen Associative Code) Database: ERK1
!!!AMT: simple quadruple
!!!AIN: vox
!!!EED: Helmut Schaffrath
!!!EEV: 1.0
*-
